src/resources/icons/grid-view-icon.svg

<svg width="18" height="18" viewBox="0 0 18 18" fill="none" aria-hidden="true"  xmlns="http://www.w3.org/2000/svg">
<path d="M1.58579 1.58579C1.21071 1.96086 1 2.46957 1 3V5C1 5.53043 1.21071 6.03914 1.58579 6.41421C1.96086 6.78929 2.46957 7 3 7H5C5.53043 7 6.03914 6.78929 6.41421 6.41421C6.78929 6.03914 7 5.53043 7 5V3C7 2.46957 6.78929 1.96086 6.41421 1.58579C6.03914 1.21071 5.53043 1 5 1H3C2.46957 1 1.96086 1.21071 1.58579 1.58579Z" stroke-width="2" stroke-linecap="round" stroke-linejoin="round"/>
<path d="M11.5858 1.58579C11.2107 1.96086 11 2.46957 11 3V5C11 5.53043 11.2107 6.03914 11.5858 6.41421C11.9609 6.78929 12.4696 7 13 7H15C15.5304 7 16.0391 6.78929 16.4142 6.41421C16.7893 6.03914 17 5.53043 17 5V3C17 2.46957 16.7893 1.96086 16.4142 1.58579C16.0391 1.21071 15.5304 1 15 1H13C12.4696 1 11.9609 1.21071 11.5858 1.58579Z" stroke-width="2" stroke-linecap="round" stroke-linejoin="round"/>
<path d="M1.58579 11.5858C1.21071 11.9609 1 12.4696 1 13V15C1 15.5304 1.21071 16.0391 1.58579 16.4142C1.96086 16.7893 2.46957 17 3 17H5C5.53043 17 6.03914 16.7893 6.41421 16.4142C6.78929 16.0391 7 15.5304 7 15V13C7 12.4696 6.78929 11.9609 6.41421 11.5858C6.03914 11.2107 5.53043 11 5 11H3C2.46957 11 1.96086 11.2107 1.58579 11.5858Z" stroke-width="2" stroke-linecap="round" stroke-linejoin="round"/>
<path d="M11.5858 11.5858C11.2107 11.9609 11 12.4696 11 13V15C11 15.5304 11.2107 16.0391 11.5858 16.4142C11.9609 16.7893 12.4696 17 13 17H15C15.5304 17 16.0391 16.7893 16.4142 16.4142C16.7893 16.0391 17 15.5304 17 15V13C17 12.4696 16.7893 11.9609 16.4142 11.5858C16.0391 11.2107 15.5304 11 15 11H13C12.4696 11 11.9609 11.2107 11.5858 11.5858Z" stroke-width="2" stroke-linecap="round" stroke-linejoin="round"/>
</svg>

<svg width="18" height="18" fill="none" aria-hidden="true" xmlns="http://www.w3.org/2000/svg"><path d="M1.586 1.586A2 2 0 0 0 1 3v2a2 2 0 0 0 2 2h2a2 2 0 0 0 2-2V3a2 2 0 0 0-2-2H3a2 2 0 0 0-1.414.586ZM11.586 1.586A2 2 0 0 0 11 3v2a2 2 0 0 0 2 2h2a2 2 0 0 0 2-2V3a2 2 0 0 0-2-2h-2a2 2 0 0 0-1.414.586ZM1.586 11.586A2 2 0 0 0 1 13v2a2 2 0 0 0 2 2h2a2 2 0 0 0 2-2v-2a2 2 0 0 0-2-2H3a2 2 0 0 0-1.414.586ZM11.586 11.586A2 2 0 0 0 11 13v2a2 2 0 0 0 2 2h2a2 2 0 0 0 2-2v-2a2 2 0 0 0-2-2h-2a2 2 0 0 0-1.414.586Z"/></svg>
